static/images/mobile/copyright/wikipedia-wordmark-kk.svg

<?xml version="1.0" encoding="UTF-8"?>
<svg width="119px" height="19px" viewBox="0 0 119 19" version="1.1" xmlns="http://www.w3.org/2000/svg" xmlns:xlink="http://www.w3.org/1999/xlink">
    <title>kk-wordmark</title>
    <g id="Page-1" stroke="none" stroke-width="1" fill="none" fill-rule="evenodd">
        <path d="M14.6264541,0 C14.7767614,0.151322695 14.7767614,0.685181642 14.6264541,0.838384122 C12.9740021,1.04046101 12.5843166,1.9841131 12.1148384,3.19751433 L8.5649892,12.3313898 C7.48871501,15.0965536 6.11089847,16.972579 3.85721742,16.972579 C2.80599443,16.972579 1.60260854,16.3889058 1.60260854,15.5787184 C1.60260854,14.8672198 2.07950935,14.3606177 2.83104564,14.3606177 C3.18083475,14.3606177 3.73196137,14.5373175 3.98247346,14.8427826 C4.15690411,15.0711765 4.5345279,15.4010787 4.88431702,15.4010787 C5.68595573,15.4010787 6.31223597,14.8700395 7.08789565,12.9658172 L2.61857427,3.14863992 C1.79745128,1.34686597 1.55343394,0.962449934 0.125514986,0.838384122 C-0.0247922725,0.686121535 -0.0489156597,0.15320248 0.101391599,0 C1.27879846,0.0244372054 1.70466902,0.0507541957 2.70578959,0.0507541957 C3.68371459,0.0507541957 4.55957911,0.0253770979 5.73698597,0 C5.88729323,0.151322695 5.88729323,0.685181642 5.73698597,0.838384122 C4.03350371,1.01508391 4.06968879,1.41547813 4.7191646,2.86667217 L8.19014888,10.6038673 L8.24117912,10.6038673 L10.9699053,3.01893475 C11.4709295,1.59781727 11.5460832,0.962449934 9.69322146,0.838384122 C9.54291421,0.686121535 9.54291421,0.15320248 9.69322146,0 C10.7725111,0.0224007716 11.6826213,0.0463810847 12.2706149,0.0502222427 L12.4228755,0.0507541957 C12.9990533,0.0507541957 13.6244057,0.0253770979 14.6264541,0 Z M26.5712421,4.7586758 C26.6835086,4.86582354 26.6835086,5.24554012 26.5712421,5.35362776 C25.2565175,5.40814152 24.9364187,5.49649142 24.9364187,6.9928003 L24.9364187,14.2168142 C24.9373465,15.7121831 25.2565175,15.8033527 26.5721699,15.8559867 C26.6844364,15.9621946 26.6844364,16.342851 26.5721699,16.4499988 C25.6322856,16.4321408 25.0876538,16.4142829 24.1486973,16.4142829 C23.1902566,16.4142829 22.6270683,16.4330807 21.7066683,16.4499988 C21.5934739,16.342851 21.5934739,15.9621946 21.7066683,15.8559867 C23.0213929,15.800533 23.3414917,15.7121831 23.3414917,14.2168142 L23.3414917,7.80392754 C23.2004626,7.84904238 23.1048969,7.93175292 23.0130425,8.03796078 L17.8821836,14.1641802 C17.6622896,14.4320495 17.4748695,14.576793 17.3449743,15.005384 C17.4785808,15.7497788 17.8970287,15.8155713 18.9269118,15.8578665 C19.0401062,15.9650142 19.0401062,16.3456707 18.9269118,16.4518786 C17.9870275,16.4330807 17.4423957,16.4161626 16.5034392,16.4161626 C15.5449985,16.4161626 14.9818102,16.4359004 14.0614102,16.4518786 C13.9491437,16.3456707 13.9491437,15.9650142 14.0614102,15.8578665 C15.3761348,15.8033527 15.6962336,15.7140629 15.6962336,14.2186939 L15.6962336,6.99374019 C15.6962336,5.4993111 15.3770626,5.40814152 14.0614102,5.35456765 C13.9491437,5.2474199 13.9491437,4.86770333 14.0614102,4.76149547 C15.0012945,4.77935343 15.5459263,4.7962715 16.4848828,4.7962715 C17.4433235,4.7962715 18.0065118,4.77747365 18.9269118,4.76149547 C19.0401062,4.86770333 19.0401062,5.2474199 18.9269118,5.35456765 C17.6121872,5.41002131 17.2920884,5.4993111 17.2920884,6.99374019 L17.2920884,13.4075667 C17.3783759,13.4009875 17.4869312,13.3398944 17.6242489,13.2083095 L22.7866538,7.04731407 C22.9991251,6.7916633 23.1735558,6.4655206 23.282111,6.17227414 C23.1438655,5.45983561 22.7207784,5.39498303 21.7057405,5.35362776 C21.5925461,5.24554012 21.5925461,4.86582354 21.7057405,4.7586758 C22.6456247,4.77747365 23.1902566,4.7953316 24.129213,4.7953316 C25.0876538,4.7953316 25.6508421,4.77559386 26.5712421,4.7586758 Z M27.8302973,16.0731019 C27.8302973,15.9819323 27.8868945,15.9283584 27.9620481,15.9283584 L28.4686393,15.8935824 C29.2582163,15.836249 29.4836772,15.6398114 29.4836772,15.1369689 L29.4836772,6.07452531 C29.4836772,5.53408712 29.2016191,5.37242561 28.4686393,5.31791184 L27.9806046,5.28219593 C27.905451,5.28219593 27.8302973,5.22674227 27.8302973,5.13839237 L27.8302973,4.7962715 L27.868338,4.76149547 C28.8082223,4.77935343 29.3714106,4.7962715 30.3103671,4.7962715 C31.2502514,4.7962715 31.7948832,4.77747365 32.7152832,4.76149547 L32.7533239,4.7962715 L32.7533239,5.13839237 C32.7533239,5.22956195 32.6967268,5.28219593 32.6030167,5.28219593 L32.114982,5.31791184 C31.3634457,5.37430539 31.0823155,5.57074293 31.0823155,6.07452531 L31.0823155,9.82093687 C31.7586981,9.82093687 32.6039445,9.80213902 33.0548663,9.55118772 C34.1626865,8.97503361 34.4261881,7.8208456 34.5950518,6.81328083 C34.7833998,5.69668852 35.3094752,4.68724396 36.7930635,4.68724396 C37.7886171,4.68724396 38.1272724,5.2098242 38.1272724,5.62337691 C38.1272724,6.14689704 37.694907,6.34521436 37.3005824,6.34521436 C37.0565651,6.34521436 36.7930635,6.25498468 36.6047155,6.07452531 C36.3978111,5.87620799 36.2475038,5.78503842 36.0034865,5.78503842 C35.4402982,5.78503842 35.310403,6.38093027 35.2148373,6.90163073 C35.0079328,8.01822303 34.6136082,9.56716589 33.1856893,10.0718882 L33.1856893,10.1630577 C34.4818574,10.1630577 35.2148373,10.9365893 35.7214284,12.1988649 C36.7002812,14.629427 37.6568663,15.8559867 38.3137647,15.9076808 L38.6143792,15.9274185 C38.7090171,15.9274185 38.7646865,15.9819323 38.7646865,16.0702822 L38.7646865,16.4124031 L38.74613,16.448119 L37.2616139,16.4293211 C35.7956542,16.4105233 35.1192715,14.95275 34.3120659,12.9705167 C33.5772304,11.1687427 33.2228022,10.5747307 31.0813877,10.5747307 L31.0813877,15.1332094 C31.0813877,15.6717678 31.3634457,15.8324894 32.1140542,15.8898228 L32.6020889,15.9245989 C32.6772425,15.9245989 32.7523961,15.9800525 32.7523961,16.0693423 L32.7523961,16.4105233 L32.7143554,16.4462392 C31.8125118,16.4105233 31.26788,16.4105233 30.3289235,16.4105233 C29.3890393,16.4105233 28.7878102,16.4105233 27.8674102,16.4462392 L27.8293695,16.4105233 L27.8302973,16.0731019 L27.8302973,16.0731019 Z M52.4417192,15.8559867 C52.5549135,15.9621946 52.5549135,16.342851 52.4417192,16.4499988 C51.5027627,16.4321408 50.957203,16.4142829 50.0182466,16.4142829 C49.0598059,16.4142829 48.4966175,16.4330807 47.5762175,16.4499988 C47.4630232,16.342851 47.4630232,15.9621946 47.5762175,15.8559867 C48.8909421,15.800533 49.2110409,15.7121831 49.2110409,14.2168142 L49.2110409,7.80392754 C49.0700119,7.84904238 48.9744462,7.93175292 48.8825917,8.03796078 L43.7517329,14.1641802 C43.5318389,14.4320495 43.3444187,14.576793 43.2145236,15.005384 C43.34813,15.7497788 43.766578,15.8155713 44.7964611,15.8578665 C44.9096554,15.9650142 44.9096554,16.3456707 44.7964611,16.4518786 C43.8565768,16.4330807 43.3119449,16.4161626 42.3729885,16.4161626 C41.4145478,16.4161626 40.8513595,16.4359004 39.9309595,16.4518786 C39.8186929,16.3456707 39.8186929,15.9650142 39.9309595,15.8578665 C41.2456841,15.8033527 41.5657828,15.7140629 41.5657828,14.2186939 L41.5657828,6.99374019 C41.5657828,5.4993111 41.2466119,5.40814152 39.9309595,5.35456765 C39.8186929,5.2474199 39.8186929,4.86770333 39.9309595,4.76149547 C40.8708437,4.77935343 41.4154756,4.7962715 42.354432,4.7962715 C43.3128728,4.7962715 43.8760611,4.77747365 44.7964611,4.76149547 C44.9096554,4.86770333 44.9096554,5.2474199 44.7964611,5.35456765 C43.4817365,5.41002131 43.1616377,5.4993111 43.1616377,6.99374019 L43.1616377,13.4075667 C43.2479252,13.4009875 43.3564804,13.3398944 43.4937982,13.2083095 L48.656203,7.04731407 C48.8686744,6.7916633 49.043105,6.4655206 49.1516603,6.17227414 C49.0124869,5.45983561 48.5903276,5.39498303 47.5752897,5.35362776 C47.4620954,5.24554012 47.4620954,4.86582354 47.5752897,4.7586758 C48.515174,4.77747365 49.0598059,4.7953316 49.9987623,4.7953316 C50.9562752,4.7953316 51.5203913,4.77559386 52.4407913,4.7586758 C52.5539857,4.86582354 52.5539857,5.24554012 52.4407913,5.35362776 C51.1260667,5.40814152 50.8068958,5.49649142 50.8068958,6.9928003 L50.8068958,14.2168142 C50.8078236,15.7121831 51.1269946,15.8033527 52.4417192,15.8559867 Z M65.7633958,4.76055558 C65.8756623,4.86676343 65.8756623,5.24648001 65.7633958,5.35362776 C64.4477434,5.40908142 64.1285724,5.4983712 64.1285724,6.9928003 L64.1285724,14.2177541 C64.1285724,15.713123 64.4477434,15.8033527 65.7633958,15.8569266 C65.8756623,15.9640743 65.8756623,16.3447308 65.7633958,16.4509387 C64.8429958,16.4321408 64.2788797,16.4152227 63.320439,16.4152227 C62.3805547,16.4152227 61.8359228,16.4349605 60.8978942,16.4509387 C60.7856277,16.3447308 60.7856277,15.9640743 60.8978942,15.8569266 C62.2135466,15.8024128 62.5327176,15.713123 62.5327176,14.2177541 L62.5327176,6.84993664 C62.5327176,5.73334433 62.1198365,5.51716905 61.6679869,5.51716905 L57.9669026,5.51716905 C57.5159809,5.51716905 57.102172,5.73240444 57.102172,6.84993664 L57.102172,14.2177541 C57.102172,15.713123 57.421343,15.8033527 58.7369954,15.8569266 C58.8501897,15.9640743 58.8501897,16.3447308 58.7369954,16.4509387 C57.7980389,16.4321408 57.2524793,16.4152227 56.3135228,16.4152227 C55.3550821,16.4152227 54.7918938,16.4349605 53.8714938,16.4509387 C53.7582994,16.3447308 53.7582994,15.9640743 53.8714938,15.8569266 C55.1862184,15.8024128 55.5053893,15.713123 55.5053893,14.2177541 L55.5053893,6.9928003 C55.5053893,5.4983712 55.1862184,5.40720163 53.8714938,5.35362776 C53.7582994,5.24648001 53.7582994,4.86676343 53.8714938,4.76055558 C54.8104502,4.77841354 55.862601,4.7953316 56.2949664,4.7953316 L63.3399232,4.7953316 C63.8455865,4.7962715 64.8235115,4.77747365 65.7633958,4.76055558 Z M73.9356571,8.68648661 C74.0479237,8.57839897 74.4431761,8.57839897 74.5554426,8.68648661 C74.5359583,9.22692481 74.5174019,9.62167966 74.5174019,10.2344896 C74.5174019,10.8463596 74.5368862,11.1894204 74.5554426,11.8210281 C74.4431761,11.927236 74.0479237,11.927236 73.9356571,11.8210281 C73.8781321,11.0099009 73.821535,10.5944684 72.2247523,10.5944684 L70.5147753,10.5944684 L70.5147753,14.9358319 C70.5147753,15.4236361 70.7773491,15.7103034 71.1911579,15.7103034 L73.7463813,15.7103034 C75.1724446,15.7103034 75.8302708,14.6472849 76.2069668,13.3502333 C76.4528398,13.2919599 76.6690225,13.3304955 76.8629374,13.4404629 C76.7144858,14.3596778 76.4314999,15.547702 76.1689261,16.448119 C76.1689261,16.448119 74.6649257,16.4124031 73.7630821,16.4124031 L69.7233426,16.4124031 C69.7233426,16.4124031 68.2026414,16.4321408 67.2822414,16.448119 C67.1681192,16.3409712 67.1681192,15.9612547 67.2822414,15.8541069 C68.5960382,15.7995932 68.9170648,15.7103034 68.9170648,14.2149344 L68.9170648,6.98998062 C68.9170648,5.49461163 68.5960382,5.40438195 67.2822414,5.35080808 C67.1681192,5.24366033 67.1681192,4.86394376 67.2822414,4.7577359 C68.2221257,4.77559386 69.7047862,4.79251193 69.7047862,4.79251193 L74.4951341,4.79251193 C74.9460559,4.79251193 75.0954354,4.77371408 75.4155342,4.7210801 C75.4730592,4.7210801 75.4906878,4.73987795 75.4906878,4.77559386 C75.5278007,4.91939742 75.8098587,6.64879964 75.9035688,7.38661526 C75.71986,7.47214548 75.515739,7.50974118 75.2837833,7.47778484 C74.8709023,6.23524693 74.5684321,5.51434938 73.1599975,5.51434938 L71.1883745,5.51434938 C70.7374527,5.51434938 70.5119918,5.87432821 70.5119918,6.30667877 L70.5119918,9.90928677 L72.2219688,9.90928677 C73.821535,9.91116655 73.8799878,9.67713332 73.9356571,8.68648661 Z M81.5066894,10.9911031 C81.9195705,8.93743791 82.1450313,7.08302998 82.1450313,5.94857972 C82.1450313,5.57074293 81.9752398,5.38276442 81.4872051,5.33670969 L80.9249447,5.28219593 C80.8293789,5.28219593 80.7746374,5.24554012 80.7746374,5.17410829 L80.7746374,4.7962715 L80.8108225,4.76149547 C80.8108225,4.76149547 82.1264749,4.7962715 82.6896632,4.7962715 L87.5932056,4.7962715 C88.1563939,4.7962715 89.64091,4.76149547 89.64091,4.76149547 L89.6780229,4.7962715 L89.6780229,5.13839237 C89.6780229,5.24554012 89.6028693,5.27655657 89.5277156,5.28219593 L88.9830838,5.31791184 C88.3781435,5.35738733 88.2881447,5.5867211 88.2881447,6.23712672 L88.2881447,15.0091435 C88.2881447,15.6755273 88.7103039,15.8738447 89.039681,15.9283584 C89.4469951,15.9960307 89.5926632,16.0561838 89.6028693,16.2714192 L89.7355479,18.9369544 C89.2271011,18.9369544 89.2271011,18.9557522 89.2271011,18.9557522 C89.0034959,17.9472475 88.3252576,16.4161626 86.822185,16.4161626 L81.3758664,16.4161626 C79.8161967,16.4161626 79.3272342,18.0196193 79.1203297,18.9557522 L78.6128108,18.9369544 L78.7454894,16.2714192 C78.7566233,16.0561838 78.9542495,15.9556153 79.1407418,15.9283584 C79.5072317,15.8738447 79.8078463,15.8306096 80.0796983,15.5683796 C80.5705164,15.0984333 80.9063882,13.8023216 81.5066894,10.9911031 Z M83.6870725,5.51622916 C83.1795535,5.51622916 82.9921334,5.76906025 82.9540926,6.21832887 C82.8019297,8.03796078 82.5040987,9.91116655 82.27771,11.1358465 C81.8657567,13.2421456 81.3953507,15.0260616 81.3953507,15.4038984 C81.3953507,15.6191338 81.6402959,15.7103034 81.9028697,15.7103034 L86.0177628,15.7103034 C86.4686846,15.7103034 86.6941455,15.6557896 86.6941455,14.9894058 L86.6941455,6.21644908 C86.6941455,5.65721304 86.5818789,5.51434938 85.9982785,5.51434938 L83.6870725,5.51622916 L83.6870725,5.51622916 Z M104.05185,15.8559867 C104.164117,15.9621946 104.164117,16.342851 104.05185,16.4499988 C103.112894,16.4321408 102.567334,16.4142829 101.629306,16.4142829 C100.671793,16.4142829 100.106749,16.4330807 99.1872766,16.4499988 C99.0740822,16.342851 99.0740822,15.9621946 99.1872766,15.8559867 C100.502001,15.800533 100.821172,15.7121831 100.821172,14.2168142 L100.821172,7.80392754 C100.681999,7.84904238 100.584577,7.93175292 100.492723,8.03796078 L95.361864,14.1641802 C95.1419701,14.4320495 94.9554778,14.576793 94.8246548,15.005384 C94.959189,15.7497788 95.377637,15.8155713 96.4065923,15.8578665 C96.5188588,15.9650142 96.5188588,16.3456707 96.4065923,16.4518786 C95.4657802,16.4330807 94.9220761,16.4161626 93.9831197,16.4161626 C93.0256068,16.4161626 92.4614907,16.4359004 91.5410906,16.4518786 C91.4278963,16.3456707 91.4278963,15.9650142 91.5410906,15.8578665 C92.8558152,15.8033527 93.175914,15.7140629 93.175914,14.2186939 L93.175914,6.99374019 C93.175914,5.4993111 92.8558152,5.40814152 91.5410906,5.35456765 C91.4278963,5.2474199 91.4278963,4.86770333 91.5410906,4.76149547 C92.4800471,4.77935343 93.0256068,4.7962715 93.9636354,4.7962715 C94.9220761,4.7962715 95.4861923,4.77747365 96.4065923,4.76149547 C96.5188588,4.86770333 96.5188588,5.2474199 96.4065923,5.35456765 C95.0909399,5.41002131 94.7717689,5.4993111 94.7717689,6.99374019 L94.7717689,13.4075667 C94.8580564,13.4009875 94.9675394,13.3398944 95.1030015,13.2083095 L100.265406,7.04731407 C100.477878,6.7916633 100.652308,6.4655206 100.759936,6.17227414 C100.622618,5.45983561 100.199531,5.39498303 99.1854209,5.35362776 C99.0722266,5.24554012 99.0722266,4.86582354 99.1854209,4.7586758 C100.124377,4.77747365 100.669937,4.7953316 101.607966,4.7953316 C102.566406,4.7953316 103.130523,4.77559386 104.050923,4.7586758 C104.163189,4.86582354 104.163189,5.24554012 104.050923,5.35362776 C102.73527,5.40814152 102.416099,5.49649142 102.416099,6.9928003 L102.416099,14.2168142 C102.41981,15.7121831 102.736198,15.8033527 104.05185,15.8559867 Z M105.050187,15.932118 C105.050187,15.8042926 105.124413,15.7291012 105.224618,15.7291012 L105.450079,15.7037241 C106.249862,15.6031556 107.493144,14.2224535 108.780962,10.8313213 C109.407242,9.18274986 110.156923,8.54738252 110.835161,8.14322874 L110.835161,8.06709744 C109.131679,7.81332646 107.104387,6.54541146 107.104387,3.95694748 C107.104387,2.20780751 107.956128,0.0244372054 112.613797,0.0244372054 C113.489662,0.0244372054 114.967683,0.0488744107 115.794373,0.0488744107 C116.571888,0.0488744107 119,0.0244372054 119,0.0244372054 L119,0.556416368 C119,0.656984867 118.949898,0.733116161 118.825569,0.733116161 L118.073105,0.784810249 C117.020954,0.860941542 116.745391,1.03952112 116.745391,1.90140255 L116.745391,14.5617547 C116.745391,15.3230676 117.071057,15.6012758 118.097229,15.678347 L118.773611,15.730981 C118.87196,15.730981 118.973093,15.8061724 118.973093,15.9339978 L118.973093,16.4161626 L118.923919,16.4678567 C118.923919,16.4678567 116.743535,16.4161626 115.768394,16.4161626 C114.86655,16.4161626 112.537716,16.4678567 112.537716,16.4678567 L112.487613,16.4161626 L112.487613,15.9339978 C112.487613,15.8061724 112.562767,15.730981 112.688023,15.730981 L113.339354,15.678347 C114.391505,15.5975163 114.716243,15.2723135 114.716243,14.5617547 L114.716243,8.19398293 C112.061743,8.19398293 111.560719,8.92991877 110.508568,11.620831 C109.432294,14.3737762 108.505399,16.413343 106.727691,16.4415397 L105.074311,16.4650371 L105.051115,16.4142829 L105.051115,15.932118 L105.050187,15.932118 Z M112.763177,7.22965321 L114.716243,7.22965321 L114.716243,1.82527126 C114.716243,0.986887139 114.616038,0.911695738 112.436583,0.911695738 C111.033715,0.911695738 109.130751,1.3186692 109.130751,3.67591962 C109.131679,6.36683189 110.684854,7.22965321 112.763177,7.22965321 Z" id="kk-wordmark" fill="#000000" fill-rule="nonzero"></path>
    </g>
</svg>

<svg xmlns="http://www.w3.org/2000/svg" width="119" height="19"><path fill="#000" fill-rule="nonzero" d="M14.626 0c.15.151.15.685 0 .838-1.652.202-2.042 1.146-2.511 2.36l-3.55 9.133c-1.076 2.766-2.454 4.642-4.708 4.642-1.051 0-2.254-.584-2.254-1.394 0-.712.477-1.218 1.228-1.218.35 0 .901.176 1.151.482.175.228.553.558.902.558.802 0 1.428-.531 2.204-2.435l-4.47-9.817C1.799 1.347 1.554.962.127.839-.024.685-.05.152.1 0 1.28.024 1.705.05 2.706.05 3.684.05 4.56.026 5.737 0c.15.151.15.685 0 .838-1.703.177-1.667.577-1.018 2.029l3.471 7.737h.051l2.729-7.585c.5-1.421.576-2.057-1.277-2.18-.15-.153-.15-.686 0-.839 1.08.022 1.99.046 2.578.05h.152c.576 0 1.201-.025 2.203-.05Zm11.945 4.759c.113.107.113.487 0 .595-1.314.054-1.635.142-1.635 1.639v7.224c.001 1.495.32 1.586 1.636 1.639.112.106.112.487 0 .594-.94-.018-1.484-.036-2.423-.036-.959 0-1.522.02-2.442.036-.114-.107-.114-.488 0-.594 1.314-.055 1.634-.144 1.634-1.64V7.805a.707.707 0 0 0-.328.234l-5.13 6.126c-.22.268-.408.413-.538.841.134.745.552.81 1.582.853.113.107.113.488 0 .594-.94-.019-1.485-.036-2.424-.036-.958 0-1.521.02-2.442.036-.112-.106-.112-.487 0-.594 1.315-.055 1.635-.144 1.635-1.64V6.995c0-1.495-.319-1.586-1.635-1.64-.112-.107-.112-.486 0-.593.94.018 1.485.035 2.424.035.958 0 1.522-.019 2.442-.035.113.107.113.486 0 .594-1.315.055-1.635.144-1.635 1.639v6.414c.086-.007.195-.068.332-.2l5.163-6.16c.212-.256.387-.582.495-.876-.138-.712-.561-.777-1.576-.818-.113-.108-.113-.488 0-.595.94.018 1.484.036 2.423.036.959 0 1.522-.02 2.442-.036Zm1.26 11.314c0-.091.056-.145.131-.145l.507-.034c.79-.058 1.015-.254 1.015-.757V6.075c0-.54-.282-.703-1.015-.757l-.488-.036c-.076 0-.15-.055-.15-.144v-.342l.037-.035c.94.018 1.503.035 2.442.035.94 0 1.485-.019 2.405-.035l.038.035v.342c0 .092-.056.144-.15.144l-.488.036c-.752.056-1.033.253-1.033.757V9.82c.677 0 1.522-.019 1.973-.27 1.108-.576 1.371-1.73 1.54-2.738.188-1.116.714-2.126 2.198-2.126.996 0 1.334.523 1.334.936 0 .524-.432.722-.826.722-.244 0-.508-.09-.696-.27-.207-.199-.357-.29-.602-.29-.563 0-.693.596-.788 1.117-.207 1.116-.601 2.665-2.03 3.17v.091c1.297 0 2.03.774 2.536 2.036.98 2.43 1.936 3.657 2.593 3.709l.3.02c.095 0 .15.054.15.142v.342l-.018.036-1.484-.019c-1.466-.018-2.143-1.476-2.95-3.458-.735-1.802-1.09-2.396-3.23-2.396v4.558c0 .539.281.7 1.032.757l.488.035c.075 0 .15.055.15.144v.342l-.038.035c-.901-.035-1.446-.035-2.385-.035-.94 0-1.541 0-2.462.035l-.038-.035.001-.338Zm24.61-.217c.114.106.114.487 0 .594-.938-.018-1.484-.036-2.423-.036-.958 0-1.521.02-2.442.036-.113-.107-.113-.488 0-.594 1.315-.055 1.635-.144 1.635-1.64V7.805a.707.707 0 0 0-.328.234l-5.131 6.126c-.22.268-.408.413-.537.841.133.745.552.81 1.581.853.114.107.114.488 0 .594-.94-.019-1.484-.036-2.423-.036-.958 0-1.522.02-2.442.036-.112-.106-.112-.487 0-.594 1.315-.055 1.635-.144 1.635-1.64V6.995c0-1.495-.32-1.586-1.635-1.64-.112-.107-.112-.486 0-.593.94.018 1.484.035 2.423.035.959 0 1.522-.019 2.442-.035.114.107.114.486 0 .594-1.314.055-1.634.144-1.634 1.639v6.414c.086-.007.194-.068.332-.2l5.162-6.16c.213-.256.387-.582.496-.876-.14-.712-.562-.777-1.577-.818-.113-.108-.113-.488 0-.595.94.018 1.485.036 2.424.036.957 0 1.521-.02 2.442-.036.113.107.113.487 0 .595-1.315.054-1.634.142-1.634 1.639v7.224c0 1.495.32 1.586 1.635 1.639ZM65.764 4.761c.113.106.113.485 0 .593-1.315.055-1.634.144-1.634 1.639v7.225c0 1.495.319 1.585 1.634 1.639.113.107.113.488 0 .594-.92-.019-1.484-.036-2.443-.036-.94 0-1.484.02-2.422.036-.112-.106-.112-.487 0-.594 1.316-.055 1.635-.144 1.635-1.64V6.85c0-1.117-.413-1.333-.865-1.333h-3.701c-.451 0-.865.215-.865 1.333v7.368c0 1.495.32 1.585 1.635 1.639.113.107.113.488 0 .594-.939-.019-1.485-.036-2.423-.036-.959 0-1.522.02-2.443.036-.113-.106-.113-.487 0-.594 1.315-.055 1.634-.144 1.634-1.64V6.994c0-1.495-.319-1.586-1.634-1.64-.113-.107-.113-.486 0-.592.94.017 1.992.034 2.424.034h7.045c.506.001 1.484-.018 2.423-.034Zm8.173 3.925c.112-.108.507-.108.62 0-.02.54-.039.936-.039 1.548s.02.955.038 1.587c-.112.106-.507.106-.62 0-.057-.811-.113-1.227-1.71-1.227h-1.71v4.342c0 .488.262.774.676.774h2.555c1.426 0 2.084-1.063 2.461-2.36a.873.873 0 0 1 .656.09c-.149.92-.432 2.108-.694 3.008 0 0-1.504-.036-2.406-.036h-4.04s-1.52.02-2.44.036c-.115-.107-.115-.487 0-.594 1.313-.054 1.634-.144 1.634-1.64V6.99c0-1.495-.321-1.586-1.635-1.64-.114-.106-.114-.486 0-.592.94.018 2.423.035 2.423.035h4.79c.451 0 .6-.02.92-.072.058 0 .076.019.076.055.037.143.319 1.873.413 2.61a1.083 1.083 0 0 1-.62.092c-.413-1.243-.716-1.964-2.124-1.964h-1.972c-.45 0-.676.36-.676.793v3.602h1.71c1.6.002 1.658-.232 1.714-1.223Zm7.57 2.305c.414-2.054.639-3.908.639-5.042 0-.378-.17-.566-.658-.612l-.562-.055c-.096 0-.15-.036-.15-.108v-.378l.036-.035s1.315.035 1.879.035h4.903c.563 0 2.048-.035 2.048-.035l.037.035v.342c0 .108-.075.139-.15.144l-.545.036c-.605.04-.695.269-.695.92v8.771c0 .667.422.865.752.92.407.067.553.127.563.342l.133 2.666c-.509 0-.509.019-.509.019-.224-1.009-.902-2.54-2.405-2.54h-5.446c-1.56 0-2.049 1.604-2.256 2.54l-.507-.019.132-2.666c.012-.215.21-.315.396-.343.366-.054.667-.097.939-.36.49-.47.826-1.766 1.427-4.577Zm2.181-5.475c-.507 0-.695.253-.733.702a52.747 52.747 0 0 1-.676 4.918c-.412 2.106-.883 3.89-.883 4.268 0 .215.245.306.508.306h4.115c.45 0 .676-.054.676-.72V6.215c0-.559-.112-.702-.696-.702l-2.31.002Zm20.365 10.34c.112.106.112.487 0 .594-.94-.018-1.485-.036-2.423-.036-.957 0-1.522.02-2.442.036-.113-.107-.113-.488 0-.594 1.315-.055 1.634-.144 1.634-1.64V7.805a.717.717 0 0 0-.328.234l-5.131 6.126c-.22.268-.407.413-.537.841.134.745.553.81 1.582.853.112.107.112.488 0 .594-.941-.019-1.485-.036-2.424-.036-.957 0-1.522.02-2.442.036-.113-.106-.113-.487 0-.594 1.315-.055 1.635-.144 1.635-1.64V6.995c0-1.495-.32-1.586-1.635-1.64-.113-.107-.113-.486 0-.593.939.018 1.485.035 2.423.035.958 0 1.522-.019 2.443-.035.112.107.112.486 0 .594-1.316.055-1.635.144-1.635 1.639v6.414c.086-.007.196-.068.331-.2l5.162-6.16c.213-.256.387-.582.495-.876-.137-.712-.56-.777-1.575-.818-.113-.108-.113-.488 0-.595.94.018 1.485.036 2.423.036.958 0 1.523-.02 2.443-.036.112.107.112.487 0 .595-1.316.054-1.635.142-1.635 1.639v7.224c.004 1.495.32 1.586 1.636 1.639Zm.998.076c0-.128.074-.203.175-.203l.225-.025c.8-.1 2.043-1.482 3.331-4.873.626-1.648 1.376-2.284 2.054-2.688v-.076c-1.703-.254-3.73-1.522-3.73-4.11 0-1.75.851-3.933 5.509-3.933.876 0 2.354.025 3.18.025.778 0 3.206-.025 3.206-.025v.532c0 .101-.05.177-.174.177l-.753.052c-1.052.076-1.328.255-1.328 1.116v12.66c0 .762.326 1.04 1.352 1.117l.677.053c.098 0 .2.075.2.203v.482l-.05.052s-2.18-.052-3.156-.052c-.901 0-3.23.052-3.23.052l-.05-.052v-.482c0-.128.075-.203.2-.203l.651-.053c1.053-.08 1.377-.406 1.377-1.116V8.194c-2.654 0-3.155.736-4.207 3.427-1.077 2.753-2.004 4.792-3.781 4.82l-1.654.024-.023-.05v-.483Zm7.713-8.702h1.953V1.825c0-.838-.1-.913-2.28-.913-1.402 0-3.305.407-3.305 2.764 0 2.69 1.554 3.554 3.632 3.554Z"/></svg>
